symbolic/22x22/apps/zart.svg

<svg xmlns="http://www.w3.org/2000/svg" width="22" height="22" version="1">
 <rect style="opacity:0.2" width="20" height="20" x="1" y=".5" rx="6" ry="6"/>
 <rect style="fill:#707090" width="20" height="20" x="1" y="0" rx="6" ry="6"/>
 <path style="opacity:0.1" d="M 9.939453,3.0004382 9.761719,4.668407 8.5,5.7758288 10.035156,6.4613757 10.701172,8.000438 11.826172,6.7562976 13.5,6.6000476 12.662109,5.1449694 13.029297,3.5082507 11.384766,3.855907 Z m 5.689453,0.5 L 14.992188,4.2836413 14,4.4242663 14.539062,5.2797351 14.363281,6.277782 15.333984,6.0238757 16.21875,6.5004382 16.279297,5.4887194 17,4.7836413 16.068359,4.4125476 Z m -8.2011716,3.5 c -0.600616,-0.00285 -1.2772281,0.047654 -1.7050782,0.1367188 -3.2049211,0.667149 -1.2756355,3.079316 0.46875,3.261718 2.1138461,0.492143 7.1207268,-0.940944 9.1484378,-1.289063 0.268252,-0.04604 0.51927,-0.07766 0.667968,-0.08594 0.83832,-0.04663 1.618178,0.174655 1.777344,0.224609 0.03225,0.0082 0.329088,0.140811 0.167969,-0.1875 C 17.826367,8.802691 16.521784,7.9825866 15.662109,7.8109851 14.9906,7.5871771 14.290153,7.3059332 13.546875,7.3598132 12.627871,7.4264302 11.386844,8.541616 11.916016,8.53364 c 0.521672,-0.0079 1.178304,-0.482283 1.759765,-0.474608 0.425847,0.0056 1.449746,0.115867 1.242188,0.421874 C 14.712859,8.732487 11.632177,9.018947 9.275391,8.926218 7.8537431,8.870277 6.3036966,8.220521 6.8847656,7.7738757 7.5757836,7.2427182 8.807298,7.309986 8.6796875,7.184032 8.5531355,7.059123 8.0283504,7.0033012 7.4277344,7.0004382 Z M 14.896484,9.654734 c -2.01803,0.204294 -4.104205,1.070949 -7.0800778,1.201172 0.1187095,1.945135 -0.3045781,3.641865 -0.7988281,4.914062 -0.175298,0.776565 0.9876795,1.30036 2.5078129,1.601563 2.538542,0.50299 5.829683,-0.563698 5.974609,-1.414063 -0.03194,-0.532186 -1.212622,-3.429865 -0.603516,-6.302734 z"/>
 <path style="opacity:0.1;fill:#ffffff" d="M 7,0 C 3.676,0 1,2.676 1,6 v 0.5 c 0,-3.324 2.676,-6 6,-6 h 8 c 3.324,0 6,2.676 6,6 V 6 C 21,2.676 18.324,0 15,0 Z"/>
 <path style="fill:#302da1" d="M 9.525258,16.870474 C 8.005125,16.569271 6.8422105,16.045614 7.0175085,15.269049 7.5117585,13.996852 7.935565,12.30062 7.8168555,10.355485 10.792728,10.225262 12.877531,9.359473 14.895561,9.155179 c -0.609106,2.872869 0.572496,5.769724 0.604439,6.30191 -0.144926,0.850365 -3.4362,1.916375 -5.974742,1.413385 z"/>
 <path style="fill:#302da1" d="M 13.5,6.09879 11.826693,6.2551035 10.700437,7.5 10.034395,5.960102 8.5,5.2758235 9.761669,4.167804 9.939618,2.5 11.385417,3.355102 13.029791,3.008622 12.66167,4.6451245 Z"/>
 <path style="fill:#302da1" d="M 17,4.283218 16.278861,4.987426 16.218351,6 15.334048,5.5231775 14.364251,5.777812 14.538859,4.77891 14,3.923711 14.992218,3.7831775 15.628988,3 16.067597,3.9120485 Z"/>
 <path style="fill:#302da1" d="M 7.427351,6.500114 C 6.826735,6.497264 6.1507985,6.547834 5.7229485,6.6368985 2.5180274,7.3040475 4.446182,9.715797 6.1905675,9.898198 8.3044135,10.390342 13.311569,8.956754 15.33928,8.608635 c 0.268252,-0.04604 0.52041,-0.07698 0.669108,-0.08526 0.83832,-0.04663 1.617327,0.173832 1.776493,0.223786 0.03225,0.0082 0.328569,0.141862 0.16745,-0.186449 C 17.825573,8.302419 16.520883,7.4821025 15.661208,7.310501 14.989699,7.086693 14.289613,6.804672 13.546335,6.858552 12.627331,6.925169 11.387558,8.040777 11.91673,8.032801 c 0.521672,-0.0079 1.177733,-0.4820645 1.759194,-0.4743895 0.425847,0.00563 1.448727,0.1164315 1.241169,0.4224395 C 14.711983,8.232432 11.632951,8.517823 9.276165,8.425094 7.8545175,8.369153 6.3027895,7.7210565 6.8838585,7.27441 7.5748765,6.7432525 8.8074465,6.810191 8.679836,6.684237 8.553284,6.559328 8.027967,6.502977 7.427351,6.500114 Z"/>
 <rect style="opacity:0.2" width="10" height="10" x="12" y="11.5" rx="3" ry="3"/>
 <rect style="fill:#c929de" width="10" height="10" x="12" y="11" rx="3" ry="3"/>
 <path style="fill:#ffffff" d="M 14.362305,12 C 14.162453,12 14,12.158338 14,12.353516 v 5.310226 C 14,17.85892 14.162452,18 14.362305,18 H 16 v 1 H 14.362305 C 14.162453,19 14,19.127091 14,19.322269 v 0.324215 C 14,19.841663 14.162453,20 14.362305,20 h 5.275543 c 0.199852,0 0.362305,-0.158337 0.362305,-0.353516 V 19.322269 C 20.000153,19.127091 19.8377,19 19.637848,19 H 18 v -1 h 1.637848 c 0.199852,0 0.362305,-0.14108 0.362305,-0.336258 V 12.353516 C 20.000153,12.158338 19.8377,12 19.637848,12 Z M 17,13 c 0.828376,0 1.5,0.671568 1.5,1.5 0,0.828431 -0.671569,1.5 -1.5,1.5 -0.828432,0 -1.5,-0.671569 -1.5,-1.5 0,-0.828432 0.671624,-1.5 1.5,-1.5 z m 0,0.5 c -0.552313,0 -1,0.447687 -1,1 0,0.552312 0.447687,1 1,1 0.552313,0 1,-0.447688 1,-1 0,-0.552313 -0.447687,-1 -1,-1 z m 0,0.5 c 0.276163,0 0.5,0.223836 0.5,0.5 5.8e-5,0.276106 -0.223837,0.5 -0.5,0.5 -0.276164,0 -0.5,-0.223894 -0.5,-0.5 0,-0.276164 0.223836,-0.5 0.5,-0.5 z m 1.5,2 C 18.776118,16 19,16.223882 19,16.5 19,16.776118 18.776118,17 18.5,17 18.223882,17 18,16.776118 18,16.5 18,16.223882 18.223882,16 18.5,16 Z"/>
</svg>

<svg xmlns="http://www.w3.org/2000/svg" width="22" height="22" version="1"><rect style="opacity:.2" width="20" height="20" x="1" y=".5" rx="6" ry="6"/><rect style="fill:#707090" width="20" height="20" x="1" rx="6" ry="6"/><path style="opacity:.1" d="m9.94 3-.178 1.668L8.5 5.776l1.535.685.666 1.54 1.125-1.245L13.5 6.6l-.838-1.455.367-1.637-1.644.348zm5.689.5-.637.784-.992.14.54.856-.177.998.971-.254.885.476.06-1.011.721-.705-.932-.371zM7.428 7c-.6-.002-1.277.048-1.705.137-3.205.667-1.276 3.08.468 3.262 2.114.492 7.121-.941 9.149-1.29.268-.045.52-.077.668-.085a5.497 5.497 0 0 1 1.777.224c.032.009.33.141.168-.187-.127-.258-1.431-1.078-2.29-1.25-.672-.224-1.373-.505-2.116-.451-.92.066-2.16 1.182-1.631 1.174.522-.008 1.178-.483 1.76-.475.426.006 1.45.116 1.242.422-.205.251-3.286.538-5.643.445-1.421-.056-2.971-.705-2.39-1.152.69-.531 1.922-.464 1.795-.59-.127-.125-.652-.18-1.252-.184zm7.468 2.655c-2.018.204-4.104 1.07-7.08 1.2.12 1.946-.304 3.643-.798 4.915-.176.777.987 1.3 2.507 1.602 2.539.503 5.83-.564 5.975-1.415-.032-.532-1.213-3.43-.604-6.302z"/><path style="opacity:.1;fill:#fff" d="M7 0C3.676 0 1 2.676 1 6v.5c0-3.324 2.676-6 6-6h8c3.324 0 6 2.676 6 6V6c0-3.324-2.676-6-6-6z"/><path style="fill:#302da1" d="M9.525 16.87c-1.52-.3-2.683-.824-2.507-1.601.494-1.272.918-2.968.799-4.914 2.976-.13 5.06-.996 7.079-1.2-.61 2.873.572 5.77.604 6.302-.145.85-3.436 1.916-5.975 1.413zM13.5 6.099l-1.673.156L10.7 7.5l-.666-1.54L8.5 5.276l1.262-1.108L9.94 2.5l1.445.855 1.645-.346-.368 1.636zM17 4.283l-.721.704L16.219 6l-.885-.477-.97.255.175-1L14 3.925l.992-.14L15.63 3l.439.912z"/><path style="fill:#302da1" d="M7.427 6.5c-.6-.003-1.276.048-1.704.137-3.205.667-1.277 3.079.468 3.261 2.113.492 7.12-.941 9.148-1.29.269-.045.52-.076.67-.085a5.499 5.499 0 0 1 1.776.224c.032.008.328.142.167-.186-.126-.259-1.431-1.079-2.29-1.25-.672-.224-1.372-.506-2.116-.452-.919.066-2.158 1.182-1.63 1.174.522-.008 1.178-.482 1.76-.475.426.006 1.449.117 1.241.423-.205.251-3.284.537-5.64.444-1.422-.056-2.974-.704-2.393-1.15.69-.532 1.923-.465 1.796-.59-.127-.126-.652-.182-1.253-.185z"/><rect style="opacity:.2" width="10" height="10" x="12" y="11.5" rx="3" ry="3"/><rect style="fill:#c929de" width="10" height="10" x="12" y="11" rx="3" ry="3"/><path style="fill:#fff" d="M14.362 12c-.2 0-.362.158-.362.354v5.31c0 .195.162.336.362.336H16v1h-1.638c-.2 0-.362.127-.362.322v.324c0 .196.162.354.362.354h5.276c.2 0 .362-.158.362-.354v-.324c0-.195-.162-.322-.362-.322H18v-1h1.638c.2 0 .362-.141.362-.336v-5.31a.358.358 0 0 0-.362-.354zM17 13a1.5 1.5 0 1 1 0 3 1.5 1.5 0 0 1 0-3zm0 .5a1 1 0 1 0 0 2 1 1 0 0 0 0-2zm0 .5a.5.5 0 1 1 0 1 .5.5 0 0 1 0-1zm1.5 2a.5.5 0 1 1 0 1 .5.5 0 0 1 0-1z"/></svg>
